X:1
T:Bolero de Ravel
T:Bolero de Ravel
T:Maurice Ravel
T:by Roberto Alencar (Violin)
C:Maurice Ravel
Z:Roberto Alencar
L:1/8
Q:1/4=60
M:3/4
K:C
V:1 treble nm="Violino" snm="Vln."
V:1
!p! c2- cB/c/ d/c/B/A/ | cc/A/ c2- cB/c/ | A/G/E/F/ G4- | G/F/E/D/ E/F/G/A/ G2- | %4
w: |||* * * * * * * 4 *|
 G2- G/A/B/A/ G/F/E/D/ | E/D/C- CC/D/ !tenuto!.E!tenuto!.F | D2 G4- | G4- G z | d2- d>c B/A/B/c/ | %9
w: |||||
 d/c/B- B/c/B/A/ c/B/A/F/- | FF/F/ FA c/A/B/G/ | FF/F/ FA B/G/A/F/ | DD/C/ D2- DD/D/ | %13
w: ||||
 DF A/F/G/E/ DD/C/ | D2- DD/C/ DE/F/ | G4- G/F/E/D/ | C z z4 ::!mp! _B2- B/A/G/F/ _B/c/A/G/ | %18
w: |||||
 _BA/G/ !>!_B2 A/_B/A/G/- | G2- G/F/E/D/ E2- | E2 z !tenuto!._B !tenuto!.c"^3"!tenuto!._d- | %21
w: |||
 d !tenuto!._d2 !tenuto!.d !tenuto!.d!tenuto!.d | %22
w: |
 (3!tenuto!._d!tenuto!._d!tenuto!._d !>!_dc/_B/"^3" !>!_dc/B/ |"^3" _d/c/_B/"^4"_A/ !>!G/F/E- E2- | %24
w: ||
 E4- E z | .D2 ED/E/ F2- | F2 G"^4"_A (3!tenuto!.F!tenuto!.G!tenuto!.E | D/E/D/C/- C!>!_B,- B,2- | %28
w: ||||
 B,/C/_B,/C/"^0" D/"^1"E/"^0"D/"^3"C/"^4" D/C/_B,/_A,/ | !>!_B,/_A,/G,- G,!>!F- F2- | %30
w: ||
 F2- F/G/F/_E/- _E2- | E2 F/_E/F/"^4"_D/- _D2- | %32
w: ||
 D2- D/"^4"_D/"^1"_E/"^4"_D/"^2" F/"^1"_E/"^4"_D/"^3"C/- | C2 z4 :| %34
w: ||

